X: 889
T: O'Donnell's hornpipe
C: anon.
O: Ireland
B: Francis O'Neill: "The Dance Music of Ireland" (1907) no. 889
R: Hornpipe
Z: Transcribed by Frank Nordberg - http://www.musicaviva.com
F: http://www.musicaviva.com/abc/tunes/ireland/oneill-1001/oneill-1001-088
9.abc
M: C|
L: 1/8
K: G
B>c|d>g (3gfe d>Be>d|B>GD>B A2A>G|F>GA>B c>de>f|(3gba (3gfe d2B>c|
dg (3gfe d>Be>d|B>GD>B A2A>G|F>GA>B c>de>f|g>fg>a g2::e>f|g>ba>g f>ag>f|e
>f (3gfe f>dB>d|
g>ba>g f>ag>f|e>f (3gfe f2B2|(3ccc A>c (3BBB G>B|(3AAA F>A E>FD2|D>EF>G A
>Bc>A|(3GBd (3gdB G2:|
W:
W:
W: From Musica Viva - http://www.musicaviva.com
W: the Internet center for free sheet music downloads.


